public/svgs/duotone/indent.svg

<svg xmlns="http://www.w3.org/2000/svg" viewBox="0 0 448 512"><!-- Font Awesome Pro 6.0.0-alpha2 by @fontawesome - https://fontawesome.com License - https://fontawesome.com/license (Commercial License) --><defs><style>.fa-secondary{opacity:.4}</style></defs><path d="M32 96H416C433.674 96 448 81.674 448 64S433.674 32 416 32H32C14.326 32 0 46.326 0 64S14.326 96 32 96ZM416 416H32C14.326 416 0 430.326 0 448S14.326 480 32 480H416C433.674 480 448 465.674 448 448S433.674 416 416 416ZM416 288H224C206.326 288 192 302.326 192 320S206.326 352 224 352H416C433.674 352 448 337.674 448 320S433.674 288 416 288ZM416 160H224C206.326 160 192 174.326 192 192S206.326 224 224 224H416C433.674 224 448 209.674 448 192S433.674 160 416 160Z" class="fa-secondary"/><path d="M9.219 350.5C11.375 351.5 13.688 352 16 352C19.688 352 23.312 350.75 26.25 348.281L122.25 268.281C125.906 265.25 128 260.75 128 256S125.906 246.75 122.25 243.719L26.25 163.719C21.469 159.719 14.844 158.937 9.219 161.5C3.594 164.156 0 169.781 0 176V336C0 342.219 3.594 347.844 9.219 350.5Z" class="fa-primary"/></svg>

<svg xmlns="http://www.w3.org/2000/svg" viewBox="0 0 448 512"><!--! Font Awesome Pro 6.5.1 by @fontawesome - https://fontawesome.com License - https://fontawesome.com/license (Commercial License) Copyright 2023 Fonticons, Inc. --><defs><style>.fa-secondary{opacity:.4}</style></defs><path class="fa-secondary" d="M32 32C14.3 32 0 46.3 0 64S14.3 96 32 96H416c17.7 0 32-14.3 32-32s-14.3-32-32-32H32zM224 160c-17.7 0-32 14.3-32 32s14.3 32 32 32H416c17.7 0 32-14.3 32-32s-14.3-32-32-32H224zM192 320c0 17.7 14.3 32 32 32H416c17.7 0 32-14.3 32-32s-14.3-32-32-32H224c-17.7 0-32 14.3-32 32zM32 416c-17.7 0-32 14.3-32 32s14.3 32 32 32H416c17.7 0 32-14.3 32-32s-14.3-32-32-32H32z"/><path class="fa-primary" d="M127.8 243.4c8.2 6.4 8.2 18.9 0 25.3L25.8 347.9C15.3 356.1 0 348.6 0 335.3V176.7c0-13.3 15.3-20.8 25.8-12.6l101.9 79.3z"/></svg>
